X:12
T:McCullough's Farewell to Pittsburgh 
R:reel
C: 1975, 2010 L.E. McCullough  
M:4/4
L:1/8
K:Dmix
fg|:afgf dcAB|c~e3 gefg|affe dcAB|cecd e~d3|
a~f3 dcAB|cdef ~g2fg|~a3f dcAB|1 cdec d3g:|2 cdeg fdd2|]
|:~f3e dcAB|c~A3 g~A3|fgfe dcAB|cAGE F~D3|
fedc dcAB|c~A3 ~g3a|f~d3 edAB|1 cdec d3e:|2 cdeg fdfg|]
<end>
<start>
